src/images/movie_save.svg

<svg width="100" height="29" viewBox="0 0 100 29" fill="none" xmlns="http://www.w3.org/2000/svg">
<rect width="100" height="29" fill="#E5E5E5"/>
<path d="M-2459 -1059C-2459 -1060.1 -2458.1 -1061 -2457 -1061H2367C2368.1 -1061 2369 -1060.1 2369 -1059V18246C2369 18247.1 2368.1 18248 2367 18248H-2457C-2458.1 18248 -2459 18247.1 -2459 18246V-1059Z" fill="#CDCDCD"/>
<rect width="1200" height="1148" transform="translate(-359 -961)" fill="white"/>
<rect width="100" height="29" rx="14.5" fill="#FF3055"/>
<path d="M46 14.75L48.819 17L54 12.5" stroke="white" stroke-width="1.5"/>
<path d="M-2457 -1060H2367V-1062H-2457V-1060ZM2368 -1059V18246H2370V-1059H2368ZM2367 18247H-2457V18249H2367V18247ZM-2458 18246V-1059H-2460V18246H-2458ZM-2457 18247C-2457.55 18247 -2458 18246.6 -2458 18246H-2460C-2460 18247.7 -2458.66 18249 -2457 18249V18247ZM2368 18246C2368 18246.6 2367.55 18247 2367 18247V18249C2368.66 18249 2370 18247.7 2370 18246H2368ZM2367 -1060C2367.55 -1060 2368 -1059.55 2368 -1059H2370C2370 -1060.66 2368.66 -1062 2367 -1062V-1060ZM-2457 -1062C-2458.66 -1062 -2460 -1060.66 -2460 -1059H-2458C-2458 -1059.55 -2457.55 -1060 -2457 -1060V-1062Z" fill="black" fill-opacity="0.1"/>
</svg>

<svg xmlns="http://www.w3.org/2000/svg" width="100" height="29" fill="none"><path fill="#E5E5E5" d="M0 0h100v29H0z"/><path fill="#CDCDCD" d="M-2459-1059c0-1.1.9-2 2-2h4824c1.1 0 2 .9 2 2v19305c0 1.1-.9 2-2 2h-4824c-1.1 0-2-.9-2-2V-1059Z"/><path fill="#fff" d="M-359-961H841V187H-359z"/><rect width="100" height="29" fill="#FF3055" rx="14.5"/><path stroke="#fff" stroke-width="1.5" d="M46 14.75 48.819 17 54 12.5"/><path fill="#000" fill-opacity=".1" d="M-2457-1060h4824v-2h-4824v2Zm4825 1v19305h2V-1059h-2Zm-1 19306h-4824v2h4824v-2Zm-4825-1V-1059h-2v19305h2Zm1 1c-.55 0-1-.4-1-1h-2c0 1.7 1.34 3 3 3v-2Zm4825-1c0 .6-.45 1-1 1v2c1.66 0 3-1.3 3-3h-2Zm-1-19306c.55 0 1 .45 1 1h2c0-1.66-1.34-3-3-3v2Zm-4824-2c-1.66 0-3 1.34-3 3h2c0-.55.45-1 1-1v-2Z"/></svg>
